!!!COM: Corelli, Arcangelo
!!!OTL: 
!!!ONM: Opus 3, No. 5
!!!OMV: 1
!!!CDT: 1653/2/17/-1713/1/8/
!!!OCY: Italia
**kern	**kern	**kern	**kern
*clefC	*clefC	*clefG	*clefG
*k[]	*k[]	*k[]	*k[]
*a:	*a:	*a:	*a:
*M4/4	*M4/4	*M4/4	*M4/4
=1	=1	=1	=1
4.D	4.D	4.ff	4.aa
8D	8D	8ff	8aa
4D	4D	4gg	4bb-
4C#	4C#	4gg	4bb-
=2	=2	=2	=2
2D	2D	2ff	2aa
2r	2r	2r	2r
=3	=3	=3	=3
4.d	4.d	4.aa	4.ff
8c	8c	8aa	8ff#
4B-	4B-	4dd	4gg
4F#	4F#	4cc	[4aa
=4	=4	=4	=4
4.G	4.G	4.b-	8aa]
.	.	.	8dd
.	.	.	2gg
8G	8G	8b-	.
4C#	4C#	4a	.
4D	4D	4aa	4ff
=5	=5	=5	=5
4GG	4GG	4gg	8bb-
.	.	.	8cc#
4GG#	4GG#	8ff	2dd
.	.	8ee	.
2AA	2AA	4ff	.
.	.	4ee	4cc#
=6	=6	=6	=6
4D	4D	4dd	4dd
4C	4C	4.a	8ee
.	.	.	8a
2BB-	2BB-	.	2dd
.	.	16dd	.
.	.	16f	.
.	.	4g	.
=7	=7	=7	=7
2AA	2AA	2a	2cc#
8AA	8AA	4r	4.aa
8BB	8BB	.	.
8C#	8C#	[4ee	.
8AA	8AA	.	8gg
=8	=8	=8	=8
8D	8D	4ee]	4.ff
8E	8E	.	.
8F	8F	2dd	.
8G	8G	.	8ff
4.A	4.A	.	8ee
.	.	.	8a
.	.	4cc	[4aa
8A	8A	.	.
=9	=9	=9	=9
8D	8D	4.b-	8aa]
8D	8D	.	16gg
.	.	.	16ff
8E	8E	.	4.gg
8C	8C	16cc	.
.	.	16b-	.
8F	8F	4a	.
8G	8G	.	16ff
.	.	.	16ee
8A	8A	4aa	[4ff
8AA	8AA	.	.
=10	=10	=10	=10
8BB	8BB	4.gg	8ff]
8BB	8BB	.	16ee
.	.	.	16dd
8C#	8C#	.	4.ee
8AA	8AA	16aa	.
.	.	16gg	.
4.D	8D	4.ff	.
.	8E	.	8a
.	8F	.	[4dd
8D	8D	8ff	.
=11	=11	=11	=11
8E	8E	8g#	4dd]
8E	8E	8e	.
8F	8F	2a	4cc
8C	8C	.	.
8D	8D	.	2b
8BB	8BB	.	.
8E	8E	8.a	.
8EE	8EE	.	.
.	.	16g#	.
=12	=12	=12	=12
4.AA	4.AA	4a	4a
.	.	4aa	2r
8AA	8AA	.	.
8BB-	8BB-	8dd	.
8C	8C	8ee	.
8D	8D	[4ff	4ddd
8BB-	8BB-	.	.
=13	=13	=13	=13
4C	4C	4ff]	8gg
.	.	.	8aa
4c	4c	4ee	8bb-
.	.	.	8ccc
8F	8F	4.ff	8aa
8G	8G	.	8bb-
8A	8A	.	[4ccc
8F	8F	8ee	.
=14	=14	=14	=14
4.B-	8B-	4.dd	8ccc]
.	8c	.	8ff
.	8d	.	4.bb-
8BB-	8B-	8gg	.
4C	8c	8ee	.
.	8C	8cc	8ee
8r	8F	8r	4aa
8AA	8AA	8ccc	.
=15	=15	=15	=15
8BB-	8BB-	8ddd	8dd
8C	8C	8ccc	8ee
8D	8D	8bb-	2ff
8AA	8AA	8aa	.
8BB-	8BB-	4aa	.
8GG	8GG	.	.
8C	8C	4gg	8.ff
8C	8C	.	.
.	.	.	16ee
=16	=16	=16	=16
8F	8F	4ff	4.ff
8G	8G	.	.
8A	8A	2ff	.
8F	8F	.	8aa
8C	8C	.	4.gg
8D	8D	.	.
8E	8E	[4ee	.
8C#	8C#	.	16aa
.	.	.	16gg
=17	=17	=17	=17
8D	8D	4ee]	4.ff
8E	8E	.	.
8F	8F	2dd	.
8G	8G	.	8ff
4.A	4.A	.	8ee
.	.	.	8a
.	.	4cc#	[4aa
8A	8A	.	.
=18	=18	=18	=18
4.B-	4.B-	4.dd	8aa]
.	.	.	8dd
.	.	.	2gg
8G	8G	8ee	.
4A	4A	8cc#	.
.	.	4a	.
8r	8r	.	4ff
8F	8F	8aa	.
=19	=19	=19	=19
8G	8G	4gg	8ee-
8A	8A	.	8cc#
8B-	8B-	8ff	2dd
8G	8G	8ee	.
8A	8A	4ff	.
8G	8G	.	.
8A	8A	4ee	4cc#
8AA	8AA	.	.
=20	=20	=20	=20
4D	4D	4dd	4dd
2GG	2GG	4d	4b-
.	.	4e	4c#
4GG#	4GG#	4f	[4d
=21	=21	=21	=21
2AA	2AA	2e	4d]
.	.	.	4c#
2DD	2DD	2d	2d
==	==	==	==
*-	*-	*-	*-
!!!RWG: This file only contains pitch and duration data.
!!!RWG: Transposing instruments are not transposed.
!!!RWG: Durations of rests and tied notes may be interpreted.
!!!RWG: Key is interpreted using the Humdrum key tool.
!!!SCA: 
!!!YOR: Chrysander Edition
!!!AGN: chamber
!!!AFT: stage1
!!!ENC: F. Bennion
!!!END: 1997/04/15
!!!AST: baroque
!!!YEC: Copyright 1994, Center for Computer Assisted Research in the Humanities
!!!YEM: Rights to all derivative electronic formats reserved.
!!!YEM: Refer to licensing agreement for further details.
!!!YEN: United States of America
!!!EED: W.B. Hewlett
!!!KEY: 1496787579
!!!EMD: Converted from MuseData to Humdrum Aug 9, 1999, by Bret Aarden using muse2kern.
!!!VTS: 1525039994
